svgs/aktionmensch.svg

<svg xmlns="http://www.w3.org/2000/svg" viewBox="0 0 192 192"><path d="M86.569 153.514c-.761-2.37-.641-13.541.231-21.381.467-4.196 1.154-6.069 2.327-6.337 1.697-.387 1.869.017 3.814 9.01.604 2.791 1.457 5.075 1.896 5.075.439 0 1.557-3.261 2.485-7.247 1.316-5.652 2.067-7.16 3.414-6.855 1.448.328 1.869 2.556 2.614 13.848.489 7.401.612 13.786.274 14.189-.337.404-1.299.054-2.138-.777-1.052-1.043-1.524-3.705-1.524-8.599 0-7.878-1.603-8.539-2.603-1.073-1.225 9.148-3.347 9.433-5.389.723-.697-2.972-1.659-5.403-2.138-5.403-.478 0-.87 3.761-.87 8.358 0 7.884-1.037 10.688-2.393 6.469Zm20.738-1.992c-.425-.821-.951-6.347-1.169-12.282-.458-12.483-.065-13.261 7.31-14.468 3.852-.63 4.698-.456 4.345.894-.242.923-2.103 2.662-4.135 3.865-2.97 1.758-3.696 2.857-3.696 5.597 0 3.229.185 3.373 3.5 2.73 2.167-.42 3.5-.193 3.5.595 0 .7-1.575 1.953-3.5 2.784-3.481 1.503-4.294 3.656-2.592 6.865.581 1.095 1.759 1.39 3.485.873 1.881-.564 2.607-.315 2.607.893 0 2.958-8.247 4.371-9.655 1.654Zm11.655-10.526c0-6.61.474-13.075 1.052-14.365.93-2.075 1.459-1.376 4.569 6.048 1.935 4.618 3.937 8.396 4.449 8.396.511 0 .93-3.39.93-7.533 0-4.775.538-8.382 1.469-9.851 1.318-2.082 1.471-.903 1.5 11.566.024 10.734-.299 14.211-1.425 15.326-1.943 1.926-3.007.963-6.282-5.689l-2.762-5.61-.27 4.179c-.41 6.35-1.164 9.552-2.249 9.552-.576 0-.981-4.958-.981-12.019Zm19.635 9.544c-3.377-3.171-3.34-4.385.115-3.851 5.584.862 7.047-4.404 1.877-6.751-5.465-2.481-7.382-11.146-3.438-15.533 2.847-3.167 5.316-3.085 7.268.241 1.496 2.551 1.444 2.717-1.108 3.532-1.473.47-3.012 1.501-3.421 2.29-.958 1.851-.062 4.636 1.492 4.636 1.855 0 6.359 6.188 7.096 9.748.486 2.35.113 3.83-1.429 5.671-2.64 3.152-5.109 3.157-8.452.017Zm15.594.482c-3.921-1.884-5.572-15.739-2.813-23.621 1.88-5.374 4.585-7.088 7.43-4.709 2.705 2.262 2.767 4.054.14 4.054-2.828 0-5.977 6.681-5.982 12.69-.004 5.518 2.231 9 4.239 6.603 1.637-1.956 3.437-1.714 4.168.56 1.234 3.841-2.985 6.439-7.182 4.423Zm8.593-7.8c-.59-8.587.413-19.167 1.871-19.741.787-.31 1.297 1.484 1.5 5.278.263 4.919.632 5.804 2.557 6.13 2.048.347 2.25-.102 2.25-4.989 0-3.521.603-6.093 1.75-7.468 1.667-1.997 1.781-1.478 2.389 10.96.608 12.438.1 16.041-2.261 16.041-.483 0-.885-1.478-.893-3.284-.021-4.405-1.324-6.597-3.604-6.061-1.407.331-1.881 1.483-1.881 4.569 0 2.852-.5 4.244-1.622 4.509-1.292.305-1.71-.905-2.056-5.944Zm-75.622-27.461c-.66-.788-1.2-2.43-1.2-3.648 0-1.849-.404-1.66-2.436 1.134-2.865 3.939-2.137 4.674-11.17-11.277-3.068-5.418-5.814-9.851-6.103-9.851-.289 0-.213 3.99.17 8.867.668 8.514.599 8.942-1.747 10.777-1.343 1.052-3.741 1.826-5.328 1.721-1.587-.105-3.615.181-4.507.634-2.389 1.216-4.492-1.96-5.883-8.885-1.37-6.819-.138-6.488-12.496-3.363-7.923 2.004-9.256 2.925-9.987 6.899-.783 4.255-3.147 6.146-6.047 4.835-4.995-2.256-4.973-3.573.358-21.739 10.647-36.279 13.367-44.61 15.41-47.207 2.139-2.719 6.172-3.607 7.217-1.589.313.604 3.078 11.216 6.146 23.582 3.067 12.366 5.906 22.896 6.308 23.4.402.505.532-9.449.289-22.119-.485-25.277-.371-25.828 5.469-26.32l2.837-.239.287 11.642c.157 6.403.664 11.642 1.126 11.642.462 0 2.534-3.896 4.606-8.657 2.071-4.761 4.199-9.317 4.729-10.124 1.233-1.881 4.158-.129 6.299 3.772 1.464 2.669 1.271 3.478-3.673 15.348l-5.219 12.53 4.614 8.839c2.538 4.862 5.54 9.841 6.673 11.064l2.058 2.225V79.136l-3.25-.374c-2.888-.332-3.286-.824-3.573-4.42-.531-6.638.495-9.481 3.576-9.905 2.643-.363 2.775-.714 3.486-9.224.835-9.995 2.675-13.562 6.709-13.001 2.493.347 2.559.599 2.841 10.749l.288 10.395 6.712.352 6.711.352.504 4.179.503 4.179 1.385-3.929c3.59-10.186 9.919-16.967 15.836-16.967 4.501 0 9.894 5.347 12.347 12.239 2.027 5.698 3.238 3.852 2.51-3.827-.593-6.258-.421-7.413 1.432-9.626 1.159-1.383 2.845-2.345 3.747-2.137.903.207 4.363 5.596 7.689 11.974 9.579 18.37 9.547 18.364 9.547 1.927V48.23l2.982-1.475c5.323-2.632 5.639-1.791 6.355 16.896.361 9.419.658 23.578.66 31.465.003 13.182-.163 14.463-2.054 15.874-1.821 1.357-2.381 1.12-4.871-2.063-1.547-1.978-5.347-8.017-8.443-13.42-3.096-5.404-5.687-9.316-5.759-8.696-.071.621-.027 5.511.098 10.867.125 5.356-.063 10.83-.418 12.165-.712 2.678-7.208 5.851-8.589 4.196-.47-.563-.991-4.517-1.158-8.785l-.303-7.761-2.651 5.97c-4.472 10.072-9.552 13.871-17.087 12.778-3.205-.465-8.021-5.847-10.749-12.013l-1.924-4.347-.044 6.083c-.051 6.908-2.313 10.494-6.206 9.833-2.817-.477-3.553-3.767-3.72-16.645-.191-14.679-1.077-20.167-3.255-20.167-1.735 0-1.864 1.23-1.864 17.869 0 16.443-.154 17.966-1.934 19.104-2.573 1.644-5.391 1.563-6.866-.197Zm43.816-22.482c1.668-3.722 2.29-13.317 1.1-16.98-1.331-4.1-5.864-4.527-8.675-.818-2.2 2.903-2.555 13.263-.6 17.534 1.62 3.538 6.635 3.7 8.175.264Zm-88.861-7.841c.465-.343.845-1.485.845-2.538 0-2.958-3.273-14.661-4.101-14.661-.404 0-1.738 3.627-2.963 8.06-1.226 4.432-2.462 8.814-2.748 9.736-.419 1.352.317 1.517 3.801.852 2.376-.454 4.701-1.106 5.166-1.449Zm59.346-30.332c-1.136-1.499-1.845-4.383-1.905-7.75-.078-4.378.401-5.912 2.611-8.359 3.636-4.026 5.256-3.776 7.198 1.111 2.692 6.774-.323 17.385-4.941 17.385-.634 0-1.968-1.075-2.963-2.387Z"/></svg>

<svg
    xmlns="http://www.w3.org/2000/svg"
    viewBox="0 0 192 192"
    id="vector">
    <g id="group">
        <path
            id="path_6"
            d="M 86.569 153.514 C 85.808 151.144 85.928 139.973 86.8 132.133 C 87.267 127.937 87.954 126.064 89.127 125.796 C 90.824 125.409 90.996 125.813 92.941 134.806 C 93.545 137.597 94.398 139.881 94.837 139.881 C 95.276 139.881 96.394 136.62 97.322 132.634 C 98.638 126.982 99.389 125.474 100.736 125.779 C 102.184 126.107 102.605 128.335 103.35 139.627 C 103.839 147.028 103.962 153.413 103.624 153.816 C 103.287 154.22 102.325 153.87 101.486 153.039 C 100.434 151.996 99.962 149.334 99.962 144.44 C 99.962 136.562 98.359 135.901 97.359 143.367 C 96.134 152.515 94.012 152.8 91.97 144.09 C 91.273 141.118 90.311 138.687 89.832 138.687 C 89.354 138.687 88.962 142.448 88.962 147.045 C 88.962 154.929 87.925 157.733 86.569 153.514 Z M 107.307 151.522 C 106.882 150.701 106.356 145.175 106.138 139.24 C 105.68 126.757 106.073 125.979 113.448 124.772 C 117.3 124.142 118.146 124.316 117.793 125.666 C 117.551 126.589 115.69 128.328 113.658 129.531 C 110.688 131.289 109.962 132.388 109.962 135.128 C 109.962 138.357 110.147 138.501 113.462 137.858 C 115.629 137.438 116.962 137.665 116.962 138.453 C 116.962 139.153 115.387 140.406 113.462 141.237 C 109.981 142.74 109.168 144.893 110.87 148.102 C 111.451 149.197 112.629 149.492 114.355 148.975 C 116.236 148.411 116.962 148.66 116.962 149.868 C 116.962 152.826 108.715 154.239 107.307 151.522 Z M 118.962 140.996 C 118.962 134.386 119.436 127.921 120.014 126.631 C 120.944 124.556 121.473 125.255 124.583 132.679 C 126.518 137.297 128.52 141.075 129.032 141.075 C 129.543 141.075 129.962 137.685 129.962 133.542 C 129.962 128.767 130.5 125.16 131.431 123.691 C 132.749 121.609 132.902 122.788 132.931 135.257 C 132.955 145.991 132.632 149.468 131.506 150.583 C 129.563 152.509 128.499 151.546 125.224 144.894 L 122.462 139.284 L 122.192 143.463 C 121.782 149.813 121.028 153.015 119.943 153.015 C 119.367 153.015 118.962 148.057 118.962 140.996 Z M 138.597 150.54 C 135.22 147.369 135.257 146.155 138.712 146.689 C 144.296 147.551 145.759 142.285 140.589 139.938 C 135.124 137.457 133.207 128.792 137.151 124.405 C 139.998 121.238 142.467 121.32 144.419 124.646 C 145.915 127.197 145.863 127.363 143.311 128.178 C 141.838 128.648 140.299 129.679 139.89 130.468 C 138.932 132.319 139.828 135.104 141.382 135.104 C 143.237 135.104 147.741 141.292 148.478 144.852 C 148.964 147.202 148.591 148.682 147.049 150.523 C 144.409 153.675 141.94 153.68 138.597 150.54 Z M 154.191 151.022 C 150.27 149.138 148.619 135.283 151.378 127.401 C 153.258 122.027 155.963 120.313 158.808 122.692 C 161.513 124.954 161.575 126.746 158.948 126.746 C 156.12 126.746 152.971 133.427 152.966 139.436 C 152.962 144.954 155.197 148.436 157.205 146.039 C 158.842 144.083 160.642 144.325 161.373 146.599 C 162.607 150.44 158.388 153.038 154.191 151.022 Z M 162.784 143.222 C 162.194 134.635 163.197 124.055 164.655 123.481 C 165.442 123.171 165.952 124.965 166.155 128.759 C 166.418 133.678 166.787 134.563 168.712 134.889 C 170.76 135.236 170.962 134.787 170.962 129.9 C 170.962 126.379 171.565 123.807 172.712 122.432 C 174.379 120.435 174.493 120.954 175.101 133.392 C 175.709 145.83 175.201 149.433 172.84 149.433 C 172.357 149.433 171.955 147.955 171.947 146.149 C 171.926 141.744 170.623 139.552 168.343 140.088 C 166.936 140.419 166.462 141.571 166.462 144.657 C 166.462 147.509 165.962 148.901 164.84 149.166 C 163.548 149.471 163.13 148.261 162.784 143.222 Z M 87.162 115.761 C 86.502 114.973 85.962 113.331 85.962 112.113 C 85.962 110.264 85.558 110.453 83.526 113.247 C 80.661 117.186 81.389 117.921 72.356 101.97 C 69.288 96.552 66.542 92.119 66.253 92.119 C 65.964 92.119 66.04 96.109 66.423 100.986 C 67.091 109.5 67.022 109.928 64.676 111.763 C 63.333 112.815 60.935 113.589 59.348 113.484 C 57.761 113.379 55.733 113.665 54.841 114.118 C 52.452 115.334 50.349 112.158 48.958 105.233 C 47.588 98.414 48.82 98.745 36.462 101.87 C 28.539 103.874 27.206 104.795 26.475 108.769 C 25.692 113.024 23.328 114.915 20.428 113.604 C 15.433 111.348 15.455 110.031 20.786 91.865 C 31.433 55.586 34.153 47.255 36.196 44.658 C 38.335 41.939 42.368 41.051 43.413 43.069 C 43.726 43.673 46.491 54.285 49.559 66.651 C 52.626 79.017 55.465 89.547 55.867 90.051 C 56.269 90.556 56.399 80.602 56.156 67.932 C 55.671 42.655 55.785 42.104 61.625 41.612 L 64.462 41.373 L 64.749 53.015 C 64.906 59.418 65.413 64.657 65.875 64.657 C 66.337 64.657 68.409 60.761 70.481 56 C 72.552 51.239 74.68 46.683 75.21 45.876 C 76.443 43.995 79.368 45.747 81.509 49.648 C 82.973 52.317 82.78 53.126 77.836 64.996 L 72.617 77.526 L 77.231 86.365 C 79.769 91.227 82.771 96.206 83.904 97.429 L 85.962 99.654 L 85.962 79.136 L 82.712 78.762 C 79.824 78.43 79.426 77.938 79.139 74.342 C 78.608 67.704 79.634 64.861 82.715 64.437 C 85.358 64.074 85.49 63.723 86.201 55.213 C 87.036 45.218 88.876 41.651 92.91 42.212 C 95.403 42.559 95.469 42.811 95.751 52.961 L 96.039 63.356 L 102.751 63.708 L 109.462 64.06 L 109.966 68.239 L 110.469 72.418 L 111.854 68.489 C 115.444 58.303 121.773 51.522 127.69 51.522 C 132.191 51.522 137.584 56.869 140.037 63.761 C 142.064 69.459 143.275 67.613 142.547 59.934 C 141.954 53.676 142.126 52.521 143.979 50.308 C 145.138 48.925 146.824 47.963 147.726 48.171 C 148.629 48.378 152.089 53.767 155.415 60.145 C 164.994 78.515 164.962 78.509 164.962 62.072 L 164.962 48.23 L 167.944 46.755 C 173.267 44.123 173.583 44.964 174.299 63.651 C 174.66 73.07 174.957 87.229 174.959 95.116 C 174.962 108.298 174.796 109.579 172.905 110.99 C 171.084 112.347 170.524 112.11 168.034 108.927 C 166.487 106.949 162.687 100.91 159.591 95.507 C 156.495 90.103 153.904 86.191 153.832 86.811 C 153.761 87.432 153.805 92.322 153.93 97.678 C 154.055 103.034 153.867 108.508 153.512 109.843 C 152.8 112.521 146.304 115.694 144.923 114.039 C 144.453 113.476 143.932 109.522 143.765 105.254 L 143.462 97.493 L 140.811 103.463 C 136.339 113.535 131.259 117.334 123.724 116.241 C 120.519 115.776 115.703 110.394 112.975 104.228 L 111.051 99.881 L 111.007 105.964 C 110.956 112.872 108.694 116.458 104.801 115.797 C 101.984 115.32 101.248 112.03 101.081 99.152 C 100.89 84.473 100.004 78.985 97.826 78.985 C 96.091 78.985 95.962 80.215 95.962 96.854 C 95.962 113.297 95.808 114.82 94.028 115.958 C 91.455 117.602 88.637 117.521 87.162 115.761 Z M 130.978 93.279 C 132.646 89.557 133.268 79.962 132.078 76.299 C 130.747 72.199 126.214 71.772 123.403 75.481 C 121.203 78.384 120.848 88.744 122.803 93.015 C 124.423 96.553 129.438 96.715 130.978 93.279 Z M 42.117 85.438 C 42.582 85.095 42.962 83.953 42.962 82.9 C 42.962 79.942 39.689 68.239 38.861 68.239 C 38.457 68.239 37.123 71.866 35.898 76.299 C 34.672 80.731 33.436 85.113 33.15 86.035 C 32.731 87.387 33.467 87.552 36.951 86.887 C 39.327 86.433 41.652 85.781 42.117 85.438 Z M 101.463 55.106 C 100.327 53.607 99.618 50.723 99.558 47.356 C 99.48 42.978 99.959 41.444 102.169 38.997 C 105.805 34.971 107.425 35.221 109.367 40.108 C 112.059 46.882 109.044 57.493 104.426 57.493 C 103.792 57.493 102.458 56.418 101.463 55.106 Z"
            fill="#000000"
            stroke-width="12"/>
    </g>
</svg>
